Origami/24x24/apps/league-of-legends.svg

<svg width="24" height="24" version="1.1" viewBox="0 0 24 24" xmlns="http://www.w3.org/2000/svg">
 <path d="M 12,2 A 10,10 0 0 0 2,12 10,10 0 0 0 12,22 10,10 0 0 0 22,12 10,10 0 0 0 12,2 Z" style="fill:#c88937"/>
 <path d="M 2.01075,12.209 A 10,10 0 0 0 2,12.5 10,10 0 0 0 12,22.5 10,10 0 0 0 22,12.5 10,10 0 0 0 21.9895,12.291 10,10 0 0 1 12,22 10,10 0 0 1 2.011,12.209 Z" style="opacity:.2"/>
 <path d="m12 2a10 10 0 0 0 -10 10 10 10 0 0 0 0.01075 0.209 10 10 0 0 1 9.989 -9.709 10 10 0 0 1 9.9895 9.791 10 10 0 0 0 0.0105 -0.291 10 10 0 0 0 -10 -10z" style="fill:#ffffff;opacity:.2"/>
 <path d="m7.8333335 7.5h4.3333335l-1.166667 1v6.5l1.166667 0.5 3.333333-0.5 2-1.5625-1 4.0625h-9l1.5-0.9375v-8.0625z" style="fill-rule:evenodd;opacity:.2"/>
 <path d="m7.8333335 7h4.3333335l-1.166667 1v6.5l1.166667 0.5 3.333333-0.5 2-1.5625-1 4.0625h-9l1.5-0.9375v-8.0625z" style="fill-rule:evenodd;fill:#ffffff"/>
</svg>

<svg xmlns="http://www.w3.org/2000/svg" width="24" height="24" version="1.1" viewBox="0 0 24 24">
 <path style="fill:#c88937" d="M 12,2 A 10,10 0 0 0 2,12 10,10 0 0 0 12,22 10,10 0 0 0 22,12 10,10 0 0 0 12,2 Z"/>
 <path style="opacity:0.2" d="M 2.01075,12.209 A 10,10 0 0 0 2,12.5 10,10 0 0 0 12,22.5 10,10 0 0 0 22,12.5 10,10 0 0 0 21.9895,12.291 10,10 0 0 1 12,22 10,10 0 0 1 2.011,12.209 Z"/>
 <path style="opacity:0.2;fill:#ffffff" d="m 12,2 a 10,10 0 0 0 -10,10 10,10 0 0 0 0.01075,0.209 10,10 0 0 1 9.989,-9.709 10,10 0 0 1 9.9895,9.791 10,10 0 0 0 0.0105,-0.291 10,10 0 0 0 -10,-10 z"/>
 <path style="opacity:0.2;fill-rule:evenodd" d="M 7.8333335,7.5 H 12.166667 L 11,8.5 V 15 L 12.166667,15.5 15.5,15 l 2,-1.5625 -1,4.0625 h -9 L 9,16.5625 V 8.5 Z"/>
 <path style="fill:#ffffff;fill-rule:evenodd" d="M 7.8333335,7 H 12.166667 L 11,8 v 6.5 L 12.166667,15 15.5,14.5 17.5,12.9375 16.5,17 h -9 L 9,16.0625 V 8 Z"/>
</svg>
